img/logos/bower.svg

<?xml version="1.0" encoding="UTF-8" standalone="no" ?>
<svg width="256px" height="225px" viewBox="0 0 256 225" version="1.1" xmlns="http://www.w3.org/2000/svg" xmlns:xlink="http://www.w3.org/1999/xlink" preserveAspectRatio="xMinYMin meet">
    <g>
        <path d="M250.862897,110.127448 C237.737379,97.5155862 172.104828,89.6424828 151.39531,87.3506207 C152.398345,84.9815172 153.252414,82.5313103 153.957517,80.0082759 C156.78069,78.7718621 159.828414,77.6215172 162.97931,76.6609655 C163.36331,77.7936552 165.171862,82.1335172 166.202483,84.1931034 C207.846069,85.3417931 209.984,53.2463448 211.677793,44.4535172 C213.334069,35.856 213.249655,27.5486897 227.533793,12.361931 C206.253241,6.16055172 175.650207,21.9735172 165.399724,45.5095172 C161.547586,44.0662069 157.687172,43.0002759 153.86869,42.3409655 C151.132138,31.3031724 136.88331,0.551724138 99.4918621,0.551724138 C52.150069,0.551724138 0.551724138,39.6077241 0.551724138,105.721931 C0.551724138,161.297103 38.4948966,210.001655 59.9326897,210.001655 C69.2948966,210.001655 77.3484138,202.990897 79.2391724,196.706207 C80.8242759,201.015172 85.6877241,214.411034 87.2849655,217.821241 C89.6457931,222.864 100.563862,227.227586 105.341793,221.994483 C111.485241,225.407448 122.757517,227.463172 128.901517,218.361379 C140.733241,220.864 151.193379,213.808552 151.421793,205.389793 C157.227586,205.079724 160.075586,196.928 158.807724,190.435862 C157.873103,185.656276 147.889655,168.505931 143.995586,162.585931 C151.704276,168.856276 171.230345,170.631172 173.601655,162.589793 C186.030345,172.345379 205.399172,167.224828 206.935172,159.291034 C222.036966,163.214897 239.358345,154.596966 236.514207,144.159448 C260.775172,142.481655 257.670069,116.66869 250.862897,110.127448 L250.862897,110.127448 Z" fill="#543729"></path>
        <path d="M183.311448,55.0758621 C188.536828,44.7084138 195.102897,33.3881379 203.396414,26.3845517 C194.268138,30.0634483 185.255724,41.0609655 179.927172,52.8154483 C177.211034,51.0891034 174.453517,49.5492414 171.672828,48.2024828 C179.106207,32.336 196.378483,19.0852414 215.413517,18.0502069 C202.663724,29.6132414 207.189517,53.6463448 196.706759,66.3691034 C193.707034,63.3561379 186.81931,57.5415172 183.311448,55.0758621 L183.311448,55.0758621 Z M175.069793,71.958069 C175.07531,71.5613793 175.223724,68.5009655 175.502345,67.104 C174.77131,66.9318621 170.22731,66.0430345 167.858207,66.0987586 C167.685517,69.0742069 169.108414,74.1362759 170.514759,77.1834483 C180.200276,76.9804138 187.196138,74.08 191.313655,71.4135172 C187.808,69.7793103 181.826207,68.3266207 177.277793,67.4576552 C176.770207,68.5075862 175.521103,71.1828966 175.069793,71.958069 L175.069793,71.958069 Z" fill="#00ACEE"></path>
        <path d="M139.080276,153.98069 L139.090207,154.027034 C137.862621,151.385379 136.558897,148.176552 135.001931,143.982345 C141.064276,152.806621 160.064552,148.255448 159.068138,140.348138 C168.368,147.345655 187.511172,139.182345 183.159172,129.370483 C192.475034,133.711448 203.107862,124.977103 200.72331,121.17131 C216.605793,124.234483 231.826207,127.287724 236.604138,128.510345 C233.430069,133.685517 226.201379,137.340138 215.304828,134.800552 C221.192828,142.821517 209.761103,152.444138 193.838345,147.144276 C197.343448,155.018483 183.166345,162.107586 167.053241,153.900138 C167.257931,161.777655 147.063724,162.68469 139.080276,153.98069 L139.080276,153.98069 Z M170.586483,114.164414 C189.020138,115.579586 219.504,118.328276 238.376276,120.969379 C237.184,114.827586 233.927172,113.073103 223.682207,110.321103 C212.663724,111.496276 184.709517,114.242207 170.586483,114.164414 L170.586483,114.164414 Z" fill="#2BAF2B"></path>
        <path d="M159.068138,140.348138 C168.368,147.345655 187.511172,139.182345 183.159172,129.370483 C192.475034,133.711448 203.107862,124.977103 200.72331,121.17131 C181.945931,117.550897 162.242207,113.917241 157.77269,113.282207 C160.483862,113.426207 164.977655,113.734069 170.586483,114.164966 C184.710069,114.242759 212.664276,111.496828 223.682207,110.321655 C205.841655,105.798069 169.416828,99.1966897 144.261517,97.5702069 C143.095724,99.273931 140.952828,102.16331 137.220414,105.233655 C126.214621,128.520276 106.273655,143.998897 84.2102069,143.998897 C77.7804138,143.998897 70.5864828,142.914207 62.5230345,140.336552 C57.4946207,145.723586 36.0551724,149.805793 18.6593103,141.26731 C32.457931,173.577379 64.457931,195.145379 99.8791724,195.145379 C129.710897,195.145379 142.939034,164.682483 140.044138,156.622345 C139.341793,154.665379 136.558345,148.176552 135.000828,143.982897 C141.064276,152.806621 160.064,148.255448 159.068138,140.348138 L159.068138,140.348138 Z" fill="#FFCC2F"></path>
        <path d="M140.989241,79.0388966 C143.623172,77.606069 152.725517,72.0888276 161.399172,70.0154483 C161.262345,69.0548966 161.159172,68.086069 161.095172,67.1117241 C155.40469,68.4744828 144.676414,73.0725517 138.528552,66.736 C151.499034,70.649931 157.975172,63.2485517 167.508414,63.2485517 C173.188966,63.2485517 181.294897,64.8353103 187.684414,67.344 C182.545103,62.5964138 165.692138,48.2681379 144.825931,48.2184828 C140.167172,53.8664828 135.131586,66.1009655 140.989241,79.0388966 L140.989241,79.0388966 Z" fill="#CECECE"></path>
        <path d="M62.5230345,140.336552 C70.5864828,142.914207 77.7804138,143.998897 84.2102069,143.998897 C106.273655,143.998897 126.214069,128.519724 137.220414,105.233655 C129.080276,112.02869 114.932966,117.842759 92.8391724,117.842759 C112.518621,113.380414 129.459862,103.573517 138.077793,89.2386207 C132.019862,79.5966897 125.449379,58.265931 142.088276,41.4030345 C139.528828,33.1801379 127.070897,11.4731034 99.4918621,11.4731034 C51.3616552,11.4731034 11.4736552,51.7473103 11.4736552,105.721379 C11.4736552,118.498207 14.0529655,130.481103 18.6598621,141.266759 C36.0551724,149.805793 57.4946207,145.723586 62.5230345,140.336552 L62.5230345,140.336552 Z" fill="#EF5734"></path>
        <path d="M76.9633103,58.1555862 C76.9633103,70.4325517 86.9158621,80.3862069 99.1933793,80.3862069 C111.470897,80.3862069 121.424552,70.4325517 121.424552,58.1555862 C121.424552,45.878069 111.470897,35.9249655 99.1933793,35.9249655 C86.9158621,35.9249655 76.9633103,45.878069 76.9633103,58.1555862 L76.9633103,58.1555862 Z" fill="#FFCC2F"></path>
        <path d="M85.8835862,58.1555862 C85.8835862,65.5056552 91.8433103,71.4648276 99.1928276,71.4648276 C106.544,71.4648276 112.502621,65.5056552 112.502621,58.1555862 C112.502621,50.8049655 106.544552,44.8457931 99.1928276,44.8457931 C91.8433103,44.8457931 85.8835862,50.8049655 85.8835862,58.1555862 L85.8835862,58.1555862 Z" fill="#543729"></path>
        <ellipse fill="#FFFFFF" cx="99.1928276" cy="52.249931" rx="7.75558621" ry="4.82206897"></ellipse>
    </g>
</svg>

<svg width="256" height="225" viewBox="0 0 256 225" xmlns="http://www.w3.org/2000/svg" preserveAspectRatio="xMinYMin meet"><path d="M250.863 110.127c-13.126-12.61-78.758-20.485-99.468-22.776 1.003-2.368 1.857-4.82 2.563-7.342 2.823-1.236 5.87-2.386 9.02-3.347.385 1.134 2.194 5.474 3.224 7.533 41.644 1.15 43.782-30.947 45.476-39.74 1.656-8.597 1.572-16.904 15.856-32.09-21.28-6.202-51.884 9.61-62.134 33.147-3.852-1.444-7.713-2.51-11.53-3.17C151.13 31.304 136.882.553 99.49.553 52.15.552.552 39.608.552 105.722c0 55.575 37.943 104.28 59.38 104.28 9.363 0 17.416-7.01 19.307-13.296 1.584 4.31 6.448 17.705 8.045 21.115 2.36 5.044 13.28 9.408 18.057 4.174 6.143 3.413 17.416 5.47 23.56-3.633 11.83 2.504 22.29-4.55 22.52-12.97 5.806-.31 8.654-8.462 7.386-14.954-.935-4.78-10.918-21.93-14.812-27.85 7.708 6.27 27.234 8.045 29.606.004 12.428 9.755 31.797 4.635 33.333-3.3 15.102 3.925 32.423-4.693 29.58-15.13 24.26-1.678 21.155-27.49 14.348-34.033z" fill="#543729"/><path d="M183.31 55.076c5.227-10.368 11.793-21.688 20.086-28.69-9.128 3.677-18.14 14.675-23.47 26.43-2.715-1.727-5.472-3.267-8.253-4.614 7.433-15.866 24.705-29.117 43.74-30.152-12.75 11.563-8.223 35.596-18.706 48.32-3-3.014-9.888-8.828-13.396-11.294zm-8.24 16.882c.005-.397.154-3.457.432-4.854-.73-.172-5.275-1.06-7.644-1.005-.172 2.974 1.25 8.036 2.657 11.083 9.685-.203 16.68-3.103 20.8-5.77-3.507-1.634-9.49-3.086-14.037-3.955-.508 1.05-1.757 3.725-2.208 4.5z" fill="#00ACEE"/><path d="M139.08 153.98l.01.047c-1.227-2.642-2.53-5.85-4.088-10.045 6.062 8.825 25.063 4.273 24.066-3.634 9.3 6.998 28.443-1.166 24.09-10.978 9.317 4.34 19.95-4.393 17.565-8.2 15.883 3.064 31.103 6.118 35.88 7.34-3.173 5.176-10.402 8.83-21.298 6.29 5.888 8.022-5.544 17.644-21.467 12.344 3.505 7.874-10.672 14.964-26.785 6.756.205 7.878-19.99 8.785-27.973.08zm31.506-39.816c18.434 1.416 48.918 4.164 67.79 6.805-1.192-6.142-4.45-7.897-14.694-10.65-11.018 1.176-38.972 3.922-53.096 3.844z" fill="#2BAF2B"/><path d="M159.068 140.348c9.3 6.998 28.443-1.166 24.09-10.978 9.317 4.34 19.95-4.393 17.565-8.2-18.777-3.62-38.48-7.253-42.95-7.888 2.71.144 7.205.452 12.813.883 14.124.078 42.078-2.668 53.096-3.843-17.84-4.524-54.265-11.125-79.42-12.752-1.166 1.704-3.31 4.593-7.042 7.664C126.215 128.52 106.274 144 84.21 144c-6.43 0-13.624-1.086-21.687-3.663-5.028 5.387-26.468 9.47-43.864.93 13.798 32.31 45.798 53.878 81.22 53.878 29.83 0 43.06-30.463 40.164-38.523-.702-1.957-3.486-8.445-5.043-12.64 6.064 8.825 25.064 4.273 24.068-3.634z" fill="#FFCC2F"/><path d="M140.99 79.04c2.633-1.434 11.736-6.95 20.41-9.025-.138-.96-.24-1.93-.305-2.903-5.69 1.362-16.42 5.96-22.566-.376 12.97 3.914 19.445-3.487 28.978-3.487 5.68 0 13.787 1.585 20.176 4.094-5.14-4.748-21.992-19.076-42.858-19.126-4.66 5.648-9.694 17.883-3.837 30.82z" fill="#CECECE"/><path d="M62.523 140.337C70.586 142.914 77.78 144 84.21 144c22.064 0 42.004-15.48 53.01-38.766-8.14 6.795-22.287 12.61-44.38 12.61 19.68-4.464 36.62-14.27 45.238-28.605-6.058-9.643-12.63-30.974 4.01-47.837-2.56-8.223-15.017-29.93-42.596-29.93-48.13 0-88.018 40.274-88.018 94.248 0 12.778 2.58 24.76 7.186 35.547 17.395 8.54 38.835 4.457 43.863-.93z" fill="#EF5734"/><path d="M76.963 58.156c0 12.277 9.953 22.23 22.23 22.23 12.278 0 22.232-9.953 22.232-22.23 0-12.278-9.954-22.23-22.232-22.23-12.277 0-22.23 9.952-22.23 22.23z" fill="#FFCC2F"/><path d="M85.884 58.156c0 7.35 5.96 13.31 13.31 13.31 7.35 0 13.31-5.96 13.31-13.31 0-7.35-5.96-13.31-13.31-13.31-7.35 0-13.31 5.96-13.31 13.31z" fill="#543729"/><ellipse fill="#FFF" cx="99.193" cy="52.25" rx="7.756" ry="4.822"/></svg>
